src/components/Icon/icons/awaitingInput.svg

<svg xmlns="http://www.w3.org/2000/svg" width="24" height="24" viewBox="0 0 24 24">
  <path fill-rule="evenodd" d="M21.396208,19.4902477 L19.5102557,17.5895615 C20.6681586,16.0314541 21.3540052,14.0964468 21.3540052,12 C21.3540052,9.89348972 20.6615583,7.94997258 19.4935484,6.38802669 L21.3788769,4.48796902 C23.018737,6.54421136 24,9.15661729 24,12 C24,14.8333516 23.0256483,17.4373533 21.396208,19.4902477 Z M19.5252071,21.3758658 C17.4882265,23.0180362 14.9044109,24 12.0930233,24 C9.27168227,24 6.67952755,23.0110709 4.63922508,21.3583994 L6.52455361,19.4583417 C8.0743914,20.6354768 10.0028425,21.3333333 12.0930233,21.3333333 C14.1732185,21.3333333 16.0932258,20.6421286 17.6392548,19.4751795 L19.5252071,21.3758658 Z M4.66083944,2.62413417 C6.69781998,0.981963821 9.2816356,0 12.0930233,0 C14.8944555,0 17.4699246,0.975021666 19.503547,2.60671374 L17.6169572,4.50804258 C16.0747826,3.35124911 14.1632296,2.66666667 12.0930233,2.66666667 C10.012828,2.66666667 8.09282075,3.3578714 6.54679173,4.52482046 L4.66083944,2.62413417 Z M10.7623365,13 L1.16666667,13 C0.522334459,13 4.54844495e-13,12.5522847 4.54747351e-13,12 C4.54844495e-13,11.4477153 0.522334459,11 1.16666667,11 L10.7623365,11 L8.26610307,7.92593278 C7.86884966,7.43672225 7.92252258,6.70021006 8.38598489,6.28088675 C8.8494472,5.86156344 9.54719515,5.91821823 9.94444856,6.40742875 L13.7338969,11.0740672 C13.9327293,11.3189257 14.0185965,11.6257377 13.9966567,11.9237224 C13.9988722,11.9488996 14,11.9743369 14,12 C14,12.0256631 13.9988722,12.0511004 13.9966567,12.0762776 C14.0185965,12.3742623 13.9327293,12.6810743 13.7338969,12.9259328 L9.94444856,17.5925712 C9.54719515,18.0817818 8.8494472,18.1384366 8.38598489,17.7191132 C7.92252258,17.2997899 7.86884966,16.5632777 8.26610307,16.0740672 L10.7623365,13 Z"/>
</svg>

<svg xmlns="http://www.w3.org/2000/svg" width="24" height="24" viewBox="0 0 24 24"><path fill-rule="evenodd" d="M21.396 19.49l-1.886-1.9A9.34 9.34 0 0021.354 12a9.34 9.34 0 00-1.86-5.612l1.885-1.9A12.008 12.008 0 0124 12c0 2.833-.974 5.437-2.604 7.49zm-1.87 1.886A11.8 11.8 0 0112.092 24a11.8 11.8 0 01-7.454-2.642l1.886-1.9a9.173 9.173 0 005.568 1.875c2.08 0 4-.69 5.546-1.858l1.886 1.9zM4.66 2.624A11.8 11.8 0 0112.093 0a11.8 11.8 0 017.41 2.607l-1.886 1.901a9.173 9.173 0 00-5.524-1.841c-2.08 0-4 .69-5.546 1.858l-1.886-1.9zM10.762 13H1.167C.522 13 0 12.552 0 12s.522-1 1.167-1h9.595L8.266 7.926a1.212 1.212 0 01.12-1.645 1.065 1.065 0 011.558.126l3.79 4.667c.199.245.285.552.263.85a.87.87 0 010 .152c.022.298-.064.605-.263.85l-3.79 4.667a1.065 1.065 0 01-1.558.126 1.212 1.212 0 01-.12-1.645L10.762 13z"/></svg>
